Yaru++/apps/scalable/dvd95.svg

<svg height="256" viewBox="0 0 67.73 67.73" width="256" xmlns="http://www.w3.org/2000/svg" xmlns:xlink="http://www.w3.org/1999/xlink">
  <filter id="filter11191" color-interpolation-filters="sRGB" height="1.024" width="1.024" x="-.012" y="-.012">
    <feGaussianBlur stdDeviation="1.12"/>
  </filter>
  <filter id="filter11210" color-interpolation-filters="sRGB" height="1.096" width="1.096" x="-.048" y="-.048">
    <feGaussianBlur stdDeviation="4.48"/>
  </filter>
  <circle cx="122.752" cy="122.752" filter="url(#filter11210)" opacity=".3" r="112" transform="matrix(.26457031 0 0 .26457031 1.322852 1.454082)"/>
  <circle cx="122.752" cy="120.75198" filter="url(#filter11191)" opacity=".1" r="112" transform="matrix(.26457031 0 0 .26457031 1.322852 1.454082)"/>
  <circle cx="33.799385" cy="32.872284" opacity=".1" r="30.161015"/>
  <circle cx="33.799385" cy="32.872284" fill="#ab4f0d" r="29.631874"/>
  <path d="m33.799387 3.2404611a29.631875 29.631875 0 0 0 -29.6318752 29.6318759h29.6318752zm0 29.6318759v29.631875a29.631875 29.631875 0 0 0 29.631875-29.631875z" fill="#b97015"/>
  <path d="m54.752287 11.919437a29.631875 29.631875 0 0 0 -41.9058 0l20.9529 20.9529zm-20.9529 20.9529-20.9529 20.9529a29.631875 29.631875 0 0 0 41.9058 0z" fill="#538e21"/>
  <path d="m25.716383 4.3646501a29.631875 29.631875 0 0 0 -.538049.182153 29.631875 29.631875 0 0 1 1.432934-.388233 29.631875 29.631875 0 0 0 -.894885.20608zm2.333415-.537501a29.631875 29.631875 0 0 1 1.459703-.242406 29.631875 29.631875 0 0 0 -1.459703.242406zm-4.269879 1.192792a29.631875 29.631875 0 0 0 -1.385568.529078 29.631875 29.631875 0 0 1 1.385568-.529078zm7.201503-1.62203a29.631875 29.631875 0 0 1 1.470699-.09556 29.631875 29.631875 0 0 0 -1.470699.09556zm-9.929668 2.7606849a29.631875 29.631875 0 0 0 -1.331844.667682 29.631875 29.631875 0 0 1 1.331844-.667682zm12.886178-2.8954039a29.631875 29.631875 0 0 1 1.477831.05285 29.631875 29.631875 0 0 0 -1.477831-.05285zm-15.486769 4.3005269a29.631875 29.631875 0 0 0 -1.26009.797712 29.631875 29.631875 0 0 1 1.26009-.797712zm18.437477-4.1394599a29.631875 29.631875 0 0 1 1.469153.200155 29.631875 29.631875 0 0 0 -1.469153-.200155zm-20.887645 5.7985101a29.631875 29.631875 0 0 0 -1.174298.9202358 29.631875 29.631875 0 0 1 1.174298-.9202358zm23.817367-5.3424031a29.631875 29.631875 0 0 1 1.431579.343431 29.631875 29.631875 0 0 0 -1.431579-.343431zm-26.516511 7.6175769a29.631875 29.631875 0 0 0 -.336047.313125 29.631875 29.631875 0 0 1 .336047-.313125zm-.443389.429622a29.631875 29.631875 0 0 0 -4.7175592 6.128526l25.6617462 14.815817zm20.944187 20.944343 20.944188 20.944341a29.631875 29.631875 0 0 0 4.717558-6.128525zm8.878977-28.2463979a29.631875 29.631875 0 0 1 1.393106.485341 29.631875 29.631875 0 0 0 -1.393106-.485341zm2.773996 1.026918a29.631875 29.631875 0 0 1 1.344573.6256669 29.631875 29.631875 0 0 0 -1.344573-.6256669zm2.659249 1.2994679a29.631875 29.631875 0 0 1 .486056.2886421l.01754-.03038a29.631875 29.631875 0 0 0 -.503593-.258264zm-29.1105 51.55138-.01754.03038a29.631875 29.631875 0 0 0 .503595.258263 29.631875 29.631875 0 0 1 -.486056-.288641zm1.800732.962441a29.631875 29.631875 0 0 0 1.344576.625669 29.631875 29.631875 0 0 1 -1.344576-.625669zm2.725466 1.167244a29.631875 29.631875 0 0 0 1.393103.485341 29.631875 29.631875 0 0 1 -1.393103-.485341zm31.108926-6.700216a29.631875 29.631875 0 0 1 -.336049.313124 29.631875 29.631875 0 0 0 .336049-.313124zm-28.284138 7.587273a29.631875 29.631875 0 0 0 1.43158.343431 29.631875 29.631875 0 0 1 -1.43158-.343431zm26.423243-5.919208a29.631875 29.631875 0 0 1 -1.174295.920234 29.631875 29.631875 0 0 0 1.174295-.920234zm-23.531095 6.51859a29.631875 29.631875 0 0 0 1.469154.200155 29.631875 29.631875 0 0 1 -1.469154-.200155zm21.16672-4.737018a29.631875 29.631875 0 0 1 -1.26009.797714 29.631875 29.631875 0 0 0 1.26009-.797714zm-18.22469 5.045385a29.631875 29.631875 0 0 0 1.477831.05286 29.631875 29.631875 0 0 1 -1.477831-.05286zm15.695853-3.510232a29.631875 29.631875 0 0 1 -1.331844.667683 29.631875 29.631875 0 0 0 1.331844-.667683zm-12.732211 3.523929a29.631875 29.631875 0 0 0 1.470699-.09556 29.631875 29.631875 0 0 1 -1.470699.09556zm10.05777-2.246671a29.631875 29.631875 0 0 1 -1.385567.529077 29.631875 29.631875 0 0 0 1.385567-.529077zm-7.11515 1.964276a29.631875 29.631875 0 0 0 1.459703-.242404 29.631875 29.631875 0 0 1 -1.459703.242404zm4.331167-.962057a29.631875 29.631875 0 0 1 -1.432934.388231 29.631875 29.631875 0 0 0 1.432934-.388231z" fill="#a69616"/>
  <circle cx="33.799385" cy="-32.872288" fill="#aea795" r="10.582812" transform="scale(1 -1)"/>
  <circle cx="33.799385" cy="32.872288" fill="#faf8f6" r="9.524531"/>
  <circle cx="33.799385" cy="32.872288" fill="#4d4d4d" r="3.703984"/>
  <path d="m33.799387 3.2404601a29.631875 29.631875 0 0 0 -29.6318752 29.6318739 29.631875 29.631875 0 0 0 .010853.309526 29.631875 29.631875 0 0 1 29.6210222-29.4122599 29.631875 29.631875 0 0 1 29.621022 29.3223489 29.631875 29.631875 0 0 0 .010848-.219615 29.631875 29.631875 0 0 0 -29.631875-29.6318739z" fill="#fff" opacity=".3"/>
  <path d="m33.799387 62.504209a29.631875 29.631875 0 0 1 -29.6318752-29.631875 29.631875 29.631875 0 0 1 .010853-.309526 29.631875 29.631875 0 0 0 29.6210222 29.41226 29.631875 29.631875 0 0 0 29.621022-29.322348 29.631875 29.631875 0 0 1 .01085.219614 29.631875 29.631875 0 0 1 -29.631875 29.631875z" opacity=".2"/>
  <circle cx="122.752" cy="120.75198" filter="url(#filter11191)" opacity=".1" r="112" transform="matrix(.13264502 0 0 .13264502 34.664292 32.514571)"/>
  <circle cx="50.946709" cy="48.266407" opacity=".1" r="15.121532"/>
  <circle cx="50.946709" cy="48.266407" fill="#003232" r="14.856242"/>
  <path d="m50.94674 33.410191a14.856243 14.856243 0 0 0 -14.856247 14.856243h14.856247zm0 14.856243v14.856242a14.856243 14.856243 0 0 0 14.856243-14.856242z" fill="#266666"/>
  <path d="m61.45169 37.761484a14.856243 14.856243 0 0 0 -21.009901 0l10.504951 10.50495zm-10.50495 10.50495-10.504951 10.50495a14.856243 14.856243 0 0 0 21.009901 0z" fill="#5c8c8c"/>
  <circle cx="50.946709" cy="-48.266407" fill="#aea795" r="5.305801" transform="scale(1 -1)"/>
  <circle cx="50.946709" cy="48.266407" fill="#faf8f6" r="4.775221"/>
  <circle cx="50.946709" cy="48.266407" fill="#4d4d4d" r="1.85703"/>
  <path d="m50.94674 33.41019a14.856243 14.856243 0 0 0 -14.856247 14.856242 14.856243 14.856243 0 0 0 .0054.155184 14.856243 14.856243 0 0 1 14.850806-14.746136 14.856243 14.856243 0 0 1 14.850801 14.701058 14.856243 14.856243 0 0 0 .0054-.110106 14.856243 14.856243 0 0 0 -14.856162-14.856242z" fill="#fff" opacity=".3"/>
  <path d="m50.94674 63.122675a14.856243 14.856243 0 0 1 -14.856247-14.856243 14.856243 14.856243 0 0 1 .0054-.155184 14.856243 14.856243 0 0 0 14.850805 14.746136 14.856243 14.856243 0 0 0 14.850801-14.701058 14.856243 14.856243 0 0 1 .0054.110106 14.856243 14.856243 0 0 1 -14.856242 14.856243z" opacity=".2"/>
  <path d="m36.070054 48.086636c-.000265.000056-.000398-.000055-.000802 0-.01431-.0093-.02251-.01374-.0342-.02073.0041.0057-.000953.0032.01969.02409.06636.04944.06081.04042.04119.02124.0223.01052.01215.0011-.0228-.02202-.0014-.0012-.0017-.0014-.0031-.0026z" fill="#fac7c3" stroke-width=".132645"/>
</svg>

<?xml version="1.0" encoding="UTF-8" standalone="no"?>
<svg
   xmlns:dc="http://purl.org/dc/elements/1.1/"
   xmlns:cc="http://creativecommons.org/ns#"
   xmlns:rdf="http://www.w3.org/1999/02/22-rdf-syntax-ns#"
   xmlns:svg="http://www.w3.org/2000/svg"
   xmlns="http://www.w3.org/2000/svg"
   xmlns:sodipodi="http://sodipodi.sourceforge.net/DTD/sodipodi-0.dtd"
   xmlns:inkscape="http://www.inkscape.org/namespaces/inkscape"
   width="256"
   height="256"
   version="1.1"
   viewBox="0 0 67.73 67.73"
   id="svg44"
   sodipodi:docname="copy.svg"
   inkscape:version="0.92.3 (2405546, 2018-03-11)">
  <metadata
     id="metadata48">
    <rdf:RDF>
      <cc:Work
         rdf:about="">
        <dc:format>image/svg+xml</dc:format>
        <dc:type
           rdf:resource="http://purl.org/dc/dcmitype/StillImage" />
        <dc:title></dc:title>
      </cc:Work>
    </rdf:RDF>
  </metadata>
  <sodipodi:namedview
     pagecolor="#ffffff"
     bordercolor="#666666"
     borderopacity="1"
     objecttolerance="10"
     gridtolerance="10"
     guidetolerance="10"
     inkscape:pageopacity="0"
     inkscape:pageshadow="2"
     inkscape:window-width="1920"
     inkscape:window-height="1009"
     id="namedview46"
     showgrid="false"
     inkscape:zoom="3.2617188"
     inkscape:cx="128"
     inkscape:cy="128"
     inkscape:window-x="0"
     inkscape:window-y="34"
     inkscape:window-maximized="1"
     inkscape:current-layer="svg44" />
  <defs
     id="defs20">
    <radialGradient
       id="radialGradient971"
       cx="152"
       cy="228.005"
       r="88"
       gradientTransform="matrix(.34811542 5.4590196e-8 -5.4663176e-8 .32490771 -18.793185 208.75322)"
       gradientUnits="userSpaceOnUse">
      <stop
         style="stop-color:#ffffff;stop-opacity:0"
         offset="0"
         id="stop2" />
      <stop
         style="stop-color:#ffffff"
         offset="1"
         id="stop4" />
    </radialGradient>
    <radialGradient
       id="radialGradient893"
       cx="340"
       cy="210.56"
       r="5.5"
       gradientTransform="matrix(7.4264632,-1.2863223e-5,1.2863218e-5,7.4264601,-2490.8795,-1287.0045)"
       gradientUnits="userSpaceOnUse">
      <stop
         style="stop-color:#cccccc"
         offset="0"
         id="stop7" />
      <stop
         style="stop-color:#b3b3b3"
         offset=".628"
         id="stop9" />
      <stop
         style="stop-color:#e6e6e6"
         offset="1"
         id="stop11" />
    </radialGradient>
    <filter
       id="filter935"
       width="1.028"
       height="1.021"
       x="-.01"
       y="-.01"
       style="color-interpolation-filters:sRGB">
      <feGaussianBlur
         stdDeviation="1.041"
         id="feGaussianBlur14" />
    </filter>
    <filter
       id="filter941"
       width="1.142"
       height="1.104"
       x="-.07"
       y="-.05"
       style="color-interpolation-filters:sRGB">
      <feGaussianBlur
         stdDeviation="5.204"
         id="feGaussianBlur17" />
    </filter>
    <filter
       inkscape:collect="always"
       style="color-interpolation-filters:sRGB"
       id="filter11191"
       x="-0.012"
       width="1.024"
       y="-0.012"
       height="1.024">
      <feGaussianBlur
         inkscape:collect="always"
         stdDeviation="1.12"
         id="feGaussianBlur11193" />
    </filter>
    <filter
       inkscape:collect="always"
       style="color-interpolation-filters:sRGB"
       id="filter11210"
       x="-0.048"
       width="1.096"
       y="-0.048"
       height="1.096">
      <feGaussianBlur
         inkscape:collect="always"
         stdDeviation="4.48"
         id="feGaussianBlur11212" />
    </filter>
    <filter
       style="color-interpolation-filters:sRGB"
       id="filter11210-3"
       width="1.096"
       height="1.096"
       x="-0.050000001"
       y="-0.050000001">
      <feGaussianBlur
         id="feGaussianBlur11212-6"
         stdDeviation="4.48" />
    </filter>
    <filter
       style="color-interpolation-filters:sRGB"
       id="filter11191-7"
       width="1.024"
       height="1.024"
       x="-0.0099999998"
       y="-0.0099999998">
      <feGaussianBlur
         id="feGaussianBlur11193-5"
         stdDeviation="1.12" />
    </filter>
  </defs>
  <circle
     style="display:inline;opacity:0.3;fill:#000000;fill-opacity:1;stroke:none;stroke-width:1;stroke-linecap:round;stroke-linejoin:round;stroke-miterlimit:4;stroke-dasharray:none;stroke-opacity:1;filter:url(#filter11210);enable-background:new"
     id="path11042-0"
     r="112"
     cy="122.752"
     cx="122.752"
     transform="matrix(0.26457031,0,0,0.26457031,1.3228519,1.454082)" />
  <circle
     style="display:inline;opacity:0.1;fill:#000000;fill-opacity:1;stroke:none;stroke-width:1;stroke-linecap:round;stroke-linejoin:round;stroke-miterlimit:4;stroke-dasharray:none;stroke-opacity:1;filter:url(#filter11191);enable-background:new"
     id="path11042-6"
     r="112"
     cy="120.75198"
     cx="122.752"
     transform="matrix(0.26457031,0,0,0.26457031,1.3228519,1.454082)" />
  <circle
     style="display:inline;opacity:0.1;fill:#000000;fill-opacity:1;stroke:none;stroke-width:0.2645703;stroke-linecap:round;stroke-linejoin:round;stroke-miterlimit:4;stroke-dasharray:none;stroke-opacity:1;enable-background:new"
     id="path11042-7"
     cy="32.872284"
     cx="33.799385"
     r="30.161015" />
  <circle
     style="display:inline;opacity:1;fill:#ab4f0d;fill-opacity:1;stroke:none;stroke-width:0.26457033;stroke-linecap:round;stroke-linejoin:round;stroke-miterlimit:4;stroke-dasharray:none;stroke-opacity:1;enable-background:new"
     id="path11042"
     r="29.631874"
     cy="32.872284"
     cx="33.799385" />
  <path
     inkscape:connector-curvature="0"
     style="display:inline;opacity:1;fill:#b97015;fill-opacity:1;stroke:none;stroke-width:0.26457033;stroke-linecap:round;stroke-linejoin:round;stroke-miterlimit:4;stroke-dasharray:none;stroke-opacity:1;enable-background:new"
     d="M 33.799387,3.2404611 A 29.631875,29.631875 0 0 0 4.1675118,32.872337 H 33.799387 Z m 0,29.6318759 V 62.504212 A 29.631875,29.631875 0 0 0 63.431262,32.872337 Z"
     id="path11042-53" />
  <path
     inkscape:connector-curvature="0"
     style="display:inline;opacity:1;fill:#538e21;fill-opacity:1;stroke:none;stroke-width:0.26457033;stroke-linecap:round;stroke-linejoin:round;stroke-miterlimit:4;stroke-dasharray:none;stroke-opacity:1;enable-background:new"
     d="m 54.752287,11.919437 a 29.631875,29.631875 0 0 0 -41.9058,0 l 20.9529,20.9529 z m -20.9529,20.9529 -20.9529,20.9529 a 29.631875,29.631875 0 0 0 41.9058,0 z"
     id="path11042-53-6" />
  <path
     style="display:inline;opacity:1;fill:#a69616;fill-opacity:1;stroke:none;stroke-width:0.26457033;stroke-linecap:round;stroke-linejoin:round;stroke-miterlimit:4;stroke-dasharray:none;stroke-opacity:1;enable-background:new"
     d="m 25.716383,4.3646501 a 29.631875,29.631875 0 0 0 -0.538049,0.182153 29.631875,29.631875 0 0 1 1.432934,-0.388233 29.631875,29.631875 0 0 0 -0.894885,0.20608 z m 2.333415,-0.537501 a 29.631875,29.631875 0 0 1 1.459703,-0.242406 29.631875,29.631875 0 0 0 -1.459703,0.242406 z m -4.269879,1.192792 a 29.631875,29.631875 0 0 0 -1.385568,0.529078 29.631875,29.631875 0 0 1 1.385568,-0.529078 z m 7.201503,-1.62203 a 29.631875,29.631875 0 0 1 1.470699,-0.09556 29.631875,29.631875 0 0 0 -1.470699,0.09556 z M 21.051754,6.158596 A 29.631875,29.631875 0 0 0 19.71991,6.826278 29.631875,29.631875 0 0 1 21.051754,6.158596 Z M 33.937932,3.2631921 a 29.631875,29.631875 0 0 1 1.477831,0.05285 29.631875,29.631875 0 0 0 -1.477831,-0.05285 z M 18.451163,7.563719 a 29.631875,29.631875 0 0 0 -1.26009,0.797712 29.631875,29.631875 0 0 1 1.26009,-0.797712 z M 36.88864,3.4242591 a 29.631875,29.631875 0 0 1 1.469153,0.200155 29.631875,29.631875 0 0 0 -1.469153,-0.200155 z M 16.000995,9.2227692 A 29.631875,29.631875 0 0 0 14.826697,10.143005 29.631875,29.631875 0 0 1 16.000995,9.2227692 Z M 39.818362,3.8803661 a 29.631875,29.631875 0 0 1 1.431579,0.343431 29.631875,29.631875 0 0 0 -1.431579,-0.343431 z M 13.301851,11.497943 a 29.631875,29.631875 0 0 0 -0.336047,0.313125 29.631875,29.631875 0 0 1 0.336047,-0.313125 z m -0.443389,0.429622 A 29.631875,29.631875 0 0 0 8.1409028,18.056091 L 33.802649,32.871908 Z m 20.944187,20.944343 20.944188,20.944341 a 29.631875,29.631875 0 0 0 4.717558,-6.128525 z M 42.681626,4.6255101 a 29.631875,29.631875 0 0 1 1.393106,0.485341 29.631875,29.631875 0 0 0 -1.393106,-0.485341 z m 2.773996,1.026918 A 29.631875,29.631875 0 0 1 46.800195,6.278095 29.631875,29.631875 0 0 0 45.455622,5.6524281 Z m 2.659249,1.2994679 a 29.631875,29.631875 0 0 1 0.486056,0.2886421 l 0.01754,-0.03038 a 29.631875,29.631875 0 0 0 -0.503593,-0.258264 z m -29.1105,51.55138 -0.01754,0.03038 a 29.631875,29.631875 0 0 0 0.503595,0.258263 29.631875,29.631875 0 0 1 -0.486056,-0.288641 z m 1.800732,0.962441 a 29.631875,29.631875 0 0 0 1.344576,0.625669 29.631875,29.631875 0 0 1 -1.344576,-0.625669 z m 2.725466,1.167244 a 29.631875,29.631875 0 0 0 1.393103,0.485341 29.631875,29.631875 0 0 1 -1.393103,-0.485341 z m 31.108926,-6.700216 a 29.631875,29.631875 0 0 1 -0.336049,0.313124 29.631875,29.631875 0 0 0 0.336049,-0.313124 z m -28.284138,7.587273 a 29.631875,29.631875 0 0 0 1.43158,0.343431 29.631875,29.631875 0 0 1 -1.43158,-0.343431 z M 52.7786,55.60081 A 29.631875,29.631875 0 0 1 51.604305,56.521044 29.631875,29.631875 0 0 0 52.7786,55.60081 Z M 29.247505,62.1194 a 29.631875,29.631875 0 0 0 1.469154,0.200155 29.631875,29.631875 0 0 1 -1.469154,-0.200155 z m 21.16672,-4.737018 a 29.631875,29.631875 0 0 1 -1.26009,0.797714 29.631875,29.631875 0 0 0 1.26009,-0.797714 z m -18.22469,5.045385 a 29.631875,29.631875 0 0 0 1.477831,0.05286 29.631875,29.631875 0 0 1 -1.477831,-0.05286 z m 15.695853,-3.510232 a 29.631875,29.631875 0 0 1 -1.331844,0.667683 29.631875,29.631875 0 0 0 1.331844,-0.667683 z m -12.732211,3.523929 a 29.631875,29.631875 0 0 0 1.470699,-0.09556 29.631875,29.631875 0 0 1 -1.470699,0.09556 z m 10.05777,-2.246671 a 29.631875,29.631875 0 0 1 -1.385567,0.529077 29.631875,29.631875 0 0 0 1.385567,-0.529077 z m -7.11515,1.964276 a 29.631875,29.631875 0 0 0 1.459703,-0.242404 29.631875,29.631875 0 0 1 -1.459703,0.242404 z m 4.331167,-0.962057 a 29.631875,29.631875 0 0 1 -1.432934,0.388231 29.631875,29.631875 0 0 0 1.432934,-0.388231 z"
     id="path11042-53-6-2"
     inkscape:connector-curvature="0" />
  <circle
     style="display:inline;opacity:1;fill:#aea795;fill-opacity:1;stroke:none;stroke-width:0.73028344;stroke-linecap:round;stroke-linejoin:round;stroke-miterlimit:4;stroke-dasharray:none;stroke-dashoffset:0;stroke-opacity:1;enable-background:new"
     id="path7147"
     cx="33.799385"
     cy="-32.872288"
     transform="scale(1,-1)"
     r="10.582812" />
  <circle
     style="display:inline;opacity:1;fill:#faf8f6;fill-opacity:1;stroke:none;stroke-width:0.68032366;stroke-linecap:round;stroke-linejoin:round;stroke-miterlimit:4;stroke-dasharray:none;stroke-dashoffset:0;stroke-opacity:1;enable-background:new"
     id="path7164"
     cx="33.799385"
     cy="32.872288"
     r="9.5245314" />
  <circle
     style="display:inline;opacity:1;fill:#4d4d4d;fill-opacity:1;stroke:none;stroke-width:0.92599607;stroke-linecap:round;stroke-linejoin:round;stroke-miterlimit:4;stroke-dasharray:none;stroke-dashoffset:0;stroke-opacity:1;enable-background:new"
     id="path7166"
     cx="33.799385"
     cy="32.872288"
     r="3.7039843" />
  <path
     style="display:inline;opacity:0.3;fill:#ffffff;fill-opacity:1;stroke:none;stroke-width:0.26457033;stroke-linecap:round;stroke-linejoin:round;stroke-miterlimit:4;stroke-dasharray:none;stroke-opacity:1;enable-background:new"
     d="M 33.799387,3.2404601 A 29.631875,29.631875 0 0 0 4.1675118,32.872334 29.631875,29.631875 0 0 0 4.1783648,33.18186 29.631875,29.631875 0 0 1 33.799387,3.7696001 29.631875,29.631875 0 0 1 63.420409,33.091949 29.631875,29.631875 0 0 0 63.431257,32.872334 29.631875,29.631875 0 0 0 33.799382,3.2404601 Z"
     id="path11042-1"
     inkscape:connector-curvature="0" />
  <path
     inkscape:connector-curvature="0"
     style="display:inline;opacity:0.2;fill:#000000;fill-opacity:1;stroke:none;stroke-width:0.26457033;stroke-linecap:round;stroke-linejoin:round;stroke-miterlimit:4;stroke-dasharray:none;stroke-opacity:1;enable-background:new"
     d="M 33.799387,62.504209 A 29.631875,29.631875 0 0 1 4.1675118,32.872334 29.631875,29.631875 0 0 1 4.1783648,32.562808 29.631875,29.631875 0 0 0 33.799387,61.975068 29.631875,29.631875 0 0 0 63.420409,32.65272 a 29.631875,29.631875 0 0 1 0.01085,0.219614 29.631875,29.631875 0 0 1 -29.631875,29.631875 z"
     id="path11042-1-7" />
  <g
     style="fill:#4d4d4d;enable-background:new"
     transform="matrix(0.26025918,0,0,0.26025918,36.826064,-17.314673)"
     id="g964" />
  <circle
     transform="matrix(0.13264502,0,0,0.13264502,34.664292,32.514571)"
     cx="122.752"
     cy="120.75198"
     r="112"
     id="circle944"
     style="display:inline;opacity:0.1;fill:#000000;fill-opacity:1;stroke:none;stroke-width:1;stroke-linecap:round;stroke-linejoin:round;stroke-miterlimit:4;stroke-dasharray:none;stroke-opacity:1;filter:url(#filter11191);enable-background:new" />
  <circle
     r="15.121532"
     cx="50.946709"
     cy="48.266407"
     id="circle946"
     style="display:inline;opacity:0.1;fill:#000000;fill-opacity:1;stroke:none;stroke-width:0.13264501;stroke-linecap:round;stroke-linejoin:round;stroke-miterlimit:4;stroke-dasharray:none;stroke-opacity:1;enable-background:new" />
  <circle
     cx="50.946709"
     cy="48.266407"
     r="14.856242"
     id="circle948"
     style="display:inline;opacity:1;fill:#003232;fill-opacity:1;stroke:none;stroke-width:0.13264503;stroke-linecap:round;stroke-linejoin:round;stroke-miterlimit:4;stroke-dasharray:none;stroke-opacity:1;enable-background:new" />
  <path
     id="path950"
     d="M 50.94674,33.410191 A 14.856243,14.856243 0 0 0 36.090493,48.266434 H 50.94674 Z m 0,14.856243 V 63.122676 A 14.856243,14.856243 0 0 0 65.802983,48.266434 Z"
     style="display:inline;opacity:1;fill:#266666;fill-opacity:1;stroke:none;stroke-width:0.13264503;stroke-linecap:round;stroke-linejoin:round;stroke-miterlimit:4;stroke-dasharray:none;stroke-opacity:1;enable-background:new"
     inkscape:connector-curvature="0" />
  <path
     id="path952"
     d="m 61.45169,37.761484 a 14.856243,14.856243 0 0 0 -21.009901,0 l 10.504951,10.50495 z m -10.50495,10.50495 -10.504951,10.50495 a 14.856243,14.856243 0 0 0 21.009901,0 z"
     style="display:inline;opacity:1;fill:#5c8c8c;fill-opacity:1;stroke:none;stroke-width:0.13264503;stroke-linecap:round;stroke-linejoin:round;stroke-miterlimit:4;stroke-dasharray:none;stroke-opacity:1;enable-background:new"
     inkscape:connector-curvature="0" />
  <circle
     r="5.3058009"
     transform="scale(1,-1)"
     cy="-48.266407"
     cx="50.946709"
     id="circle956"
     style="display:inline;opacity:1;fill:#aea795;fill-opacity:1;stroke:none;stroke-width:0.36613506;stroke-linecap:round;stroke-linejoin:round;stroke-miterlimit:4;stroke-dasharray:none;stroke-dashoffset:0;stroke-opacity:1;enable-background:new" />
  <circle
     r="4.7752209"
     cy="48.266407"
     cx="50.946709"
     id="circle958"
     style="display:inline;opacity:1;fill:#faf8f6;fill-opacity:1;stroke:none;stroke-width:0.34108719;stroke-linecap:round;stroke-linejoin:round;stroke-miterlimit:4;stroke-dasharray:none;stroke-dashoffset:0;stroke-opacity:1;enable-background:new" />
  <circle
     r="1.8570303"
     cy="48.266407"
     cx="50.946709"
     id="circle960"
     style="display:inline;opacity:1;fill:#4d4d4d;fill-opacity:1;stroke:none;stroke-width:0.46425757;stroke-linecap:round;stroke-linejoin:round;stroke-miterlimit:4;stroke-dasharray:none;stroke-dashoffset:0;stroke-opacity:1;enable-background:new" />
  <path
     inkscape:connector-curvature="0"
     id="path962"
     d="m 50.94674,33.41019 a 14.856243,14.856243 0 0 0 -14.856247,14.856242 14.856243,14.856243 0 0 0 0.0054,0.155184 A 14.856243,14.856243 0 0 1 50.946699,33.67548 14.856243,14.856243 0 0 1 65.7975,48.376538 14.856243,14.856243 0 0 0 65.8029,48.266432 14.856243,14.856243 0 0 0 50.946738,33.41019 Z"
     style="display:inline;opacity:0.3;fill:#ffffff;fill-opacity:1;stroke:none;stroke-width:0.13264503;stroke-linecap:round;stroke-linejoin:round;stroke-miterlimit:4;stroke-dasharray:none;stroke-opacity:1;enable-background:new" />
  <path
     id="path964"
     d="m 50.94674,63.122675 a 14.856243,14.856243 0 0 1 -14.856247,-14.856243 14.856243,14.856243 0 0 1 0.0054,-0.155184 14.856243,14.856243 0 0 0 14.850805,14.746136 14.856243,14.856243 0 0 0 14.850801,-14.701058 14.856243,14.856243 0 0 1 0.0054,0.110106 14.856243,14.856243 0 0 1 -14.856242,14.856243 z"
     style="display:inline;opacity:0.2;fill:#000000;fill-opacity:1;stroke:none;stroke-width:0.13264503;stroke-linecap:round;stroke-linejoin:round;stroke-miterlimit:4;stroke-dasharray:none;stroke-opacity:1;enable-background:new"
     inkscape:connector-curvature="0" />
  <path
     id="path967"
     d="m 36.070054,48.086636 c -2.65e-4,5.6e-5 -3.98e-4,-5.5e-5 -8.02e-4,0 -0.01431,-0.0093 -0.02251,-0.01374 -0.0342,-0.02073 0.0041,0.0057 -9.53e-4,0.0032 0.01969,0.02409 0.06636,0.04944 0.06081,0.04042 0.04119,0.02124 0.0223,0.01052 0.01215,0.0011 -0.0228,-0.02202 -0.0014,-0.0012 -0.0017,-0.0014 -0.0031,-0.0026 z"
     style="fill:#fac7c3;stroke-width:0.13264503;enable-background:new"
     inkscape:connector-curvature="0" />
</svg>
